deploy-package/icon-192.svg

<svg width="192" height="192" viewBox="0 0 192 192" fill="none" xmlns="http://www.w3.org/2000/svg">
<rect width="192" height="192" rx="48" fill="#7DD3FC"/>
<path d="M48 96C48 69.4903 69.4903 48 96 48C122.51 48 144 69.4903 144 96C144 122.51 122.51 144 96 144C69.4903 144 48 122.51 48 96Z" fill="white"/>
<path d="M72 96C72 82.7452 82.7452 72 96 72C109.255 72 120 82.7452 120 96C120 109.255 109.255 120 96 120C82.7452 120 72 109.255 72 96Z" fill="#7DD3FC"/>
</svg>

<svg width="192" height="192" viewBox="0 0 192 192" fill="none" xmlns="http://www.w3.org/2000/svg">
  <rect width="192" height="192" rx="24" fill="#7dd3fc"/>
  <path d="M48 96c0-26.51 21.49-48 48-48s48 21.49 48 48-21.49 48-48 48-48-21.49-48-48z" fill="white"/>
  <path d="M72 96c0-13.255 10.745-24 24-24s24 10.745 24 24-10.745 24-24 24-24-10.745-24-24z" fill="#0369a1"/>
  <text x="96" y="110" text-anchor="middle" fill="white" font-family="Arial, sans-serif" font-weight="bold" font-size="18">BW</text>
</svg>
